X: 8294
T: Corney Is Coming
R: reel
M: 4/4
K: Dmajor
|Addc defd|=cABG EFGE|Dddc defg|af (3gfe fdec|
Addc defd|=cAAG EFGE|Addc defd|(3gfe cd eddc|
Addc defd|=c3G EFGE|Addc defg|(3agf (3gfe fdec|
Addc defd|=cABG EFGE|Dddc defd|(3gfe cd eddA||
dcdf afdB|=cdef ge^ce|dcdf a3f|g2 ag eddf|
afdf afdf|(3gfe ce gfge|defg a3f|g2 ag eddA|
d3f afdB|=cdef ge^ce|dcdf a3f|g2 ag eddf|
a3f a3f|gece g3e|defg a3f|g2ag ed d2||

